X:1245
N:See #313 for more history
T:John Macananty's Welcome Home
O:ireland
A:Down
R:song air
H:For John MacAnanty, the Fairy King of Scrabo, near Newtownards, see "John
H:MacAnanty's Courtship," farther on.
L:1/8
M:C
K:G
"Mod.: time well marked."\
DGGA G2 GA|Bdef g2 fe|dBge dB AG|AG AB AB GE|
DGGA G2 GA|Bdef g2 fe|dBgB Ac BA|GE GA G2:|Bd|
efgf edBd|edef g2 fe|dB ge dB AG|AG AB A2 Bd|
efgf edBd|edef g2 fe|dB gB Ac BA|GE GA G2||
